X:1
T:Title
%%score 1 2 3
L:1/8
M:4/2
K:C
V:1 treble nm="Part_1"
V:2 treble nm="Part_2"
V:3 bass nm="Part_3"
V:1
 z2 A2 (A2 ^G2) A4 z2 Bc | dcdB c2 c2 B4 A4 | z8 z2 d2 (d2 ^c2) | d4 z2 AB cBcA =B2 B2 | %4
 A4 G4 z2 A2 (A2 ^G2) | A2 z G G2 ^F2 G2 Bc dcdB | c2 c2 B4 A2 z A (A2 ^G2) | A4 B4 z cBA B3 B | %8
 A2 z d G3 A A4 G4 | z4 A4 z dcB c3 c | B2 z e A3 B B4 A2 z A | (A2 ^G2) A4 c4 z edc | %12
 d3 d c4 z2 e2 c3 c | B4 B4 z2 A2 B4 | A4 z4 z8 | z4 z2 c2 (c2 B2) c4 | z16 | %17
 z2 A2 (A2 ^G2) A2 z A B4 | A4 z2 A4 AG F2 FE | GGAB c2 de f4 e2 z c | (c2 B2) c2 e4 BB B3 A | %21
 B4 z ^ccc d2 =c2 B4 |[M:6/2] A2 z A (A2 ^G2) A4 A3 E ^F2 dABBeB |[M:4/2] cAdc B4 A2 AE ^FGdA | %24
 BGcB A4 G4 z4 | z4 z2 c2 (c2 B2) c4 | z4 z2 A2 (A2 ^G2) A2 AE | F2 GD EEAE FDGG G2 ^F2 | %28
 G2 z A B4 A4 z AEG | ^F2 FG G2 F2 G4 z GE=F | E2 EA A2 ^G2 A4 z dAc | B2 Bd (d2 ^c2) d4 z eBd | %32
 c6 BB A4 G4 | z cGB A2 AA B4 A4 | z2 A2 B4 A8- | A16 |] %36
V:2
 z16 | z4 z2 A2 (A2 ^G2) A4 | z2 EF GFGE F2 F2 E4 | D4 z4 z4 z2 G2 | (G2 ^F2) G4 z2 ^cc d=cdB | %5
 c2 B2 A4 G2 GA BABG | A2 A2 (A2 ^G2) A2 z A B4 | A4 z4 z8 | z4 z2 G2 (G2 ^F2) G4 | %9
 z4 z2 A2 (A2 ^G2) A4 | z4 z2 A2 (A2 ^G2) A2 z A | B4 A4 A4 z cBA | B3 B A4 z2 z G E2 F2 | %13
 G2 ^F2 G4 z2 A2 A2 ^G2 | A4 A6 GG ^F2 FE | GGAB c2 de f4 e4 | z2 e4 BB B3 B B^GGG | %17
 A>B A>B B4 A2 z A (A2 ^G2) | A4 z4 z2 d4 cc | B2 AG G2 G2 z2 AB c2 de | f4 e2 c4 ^GG G3 ^F | %21
 ^GGGG A6 A2 (A2 G2) |[M:6/2] A2 z A B4 A4 z4 z8 |[M:4/2] z2 A2 (A2 ^G2) A4 z4 | %24
 z2 A2 (A2 ^F2) G2 GD E2 cG | AAdA BGcc d4 c2 cG | AAdA Bcdc B4 A4 | dA B2 cGAA dABB cB A2 | %28
 B2 z A (A2 ^G2) A4 z4 | z4 z dAc B2 cc (c2 B2) | c4 z ecd c2 cB A4 | G4 z AEG ^F2 FA (A2 ^G2) | %32
 AAEG FG G2 G2 ^F2 GGD=F | E4 F2 A2 (A2 ^G2) G4 | z2 G2 (G2 ^G2) A8- | A16 |] %36
V:3
 A,2 F,2 D,2 E,2 A,,4 G,4 | D,2 E,2 G,2 F,2 D,2 E,2 A,,4 | C,2 A,,2 G,,2 A,,2 D,2 _B,,2 G,,2 A,,2 | %3
 D,4 F,2 D,2 C,2 D,2 G,,2 B,,2 | C,2 D,2 G,3 F, E,2 A,,2 D,2 E,2 | A,,2 B,,2 C,2 D,2 G,,4 G,4 | %6
 F,2 C,2 D,2 E,2 A,,2 C,2 D,2 E,2 | A,,4 E,4 C,2 D,2 G,,4 | D,4 E,2 B,,2 C,2 D,2 G,,4 | %9
 z4 F,4 D,2 E,2 A,,4 | E,4 F,2 ^C,2 D,2 E,2 A,,2 C,2 | D,2 E,2 A,,4 A,,8 | %12
 G,4 F,2 A,2 G,2 C,2 A,,4 | E,8 A,,2 ^C,2 D,2 E,2 | A,,4 A,,3 B,, ^C,4 D,4 | %15
 C,2 B,,2 A,,4 D,4 C,4 | C,4 E,8 E,4 | ^C,4 D,2 E,2 A,,2 C,2 D,2 E,2 | A,,3 B,, ^C,4 D,8 | %19
 G,2 F,2 E,4 D,4 C,4 | D,4 C,3 D, E,4- E,4 | E,4 A,,4 B,,2 C,2 D,2 E,2 | %22
[M:6/2] A,,2 C,2 D,2 E,2 A,,4 ^C,4 D,2 ^F,2 G,2 ^G,2 |[M:4/2] A,2 D,2 E,4 A,,4 D,2 ^F,2 | %24
 G,2 A,,2 D,4 G,,4 C,2 E,2 | F,2 ^F,2 G,2 E,2 F,2 G,2 C,2 E,2 | F,2 ^F,2 G,2 D,2 E,4 A,,4 | %27
 D,2 G,,2 C,2 ^C,2 D,2 G,,2 C,2 D,2 | G,2 F,2 D,2 E,2 A,,4 ^C,4 | D,2 B,,2 D,4 G,,2 E,,2 G,,4 | %30
 C,2 A,,2 E,4 A,,2 B,,2 D,4 | G,,2 B,,2 A,,4 D,4 E,4 | A,,4 D,4 D,4 G,,4 | C,4 F,4 D,2 E,2 A,,4 | %34
 A,2 F,2 D,2 E,2 A,,8- | A,,16 |] %36

